X:1
T:[ID 2-64]
T:[ID 2-64]
T:Bezeichnung standardisiert: Menuett Men\"uet 4.
T:Urheber unbekannt Datum in der hier transkribierten schriftlichen Quelle: 1767
C:Urheber unbekannt
C:Datum in der hier transkribierten schriftlichen Quelle: 1767
L:1/8
M:3/4
K:G
V:1 treble 
V:1
 g3 afd | g3 afd | g2 a2{ab} b2 | (3bag (3agf g2 |"^O)" d3 cBG | cAFD G2 |"^O)" d3 cBG | cAFD G2 | %8
 (3gfe dcBA | G6 :: g3 _fef | (3gag (3fgf e2 | a3 g^fg | (3aba (3gag f2 |"^O)" d3 cBG | cAFD G2 | %16
"^O)" d3 cBG | cAFD G2 | (3gfe dcBA | G6 :| %20

